assets/icons/librescoot-engine-warning.svg

<svg xmlns="http://www.w3.org/2000/svg" width="96" height="96" fill="none" viewBox="0 0 96 96"><path stroke="#ffea00" stroke-width="4.5" d="M14.5633 41.8517c0-1.8557 1.5044-3.36 3.36-3.36h2.9166c1.8557 0 3.36-1.5043 3.36-3.36v-1.5173c0-1.8557 1.5043-3.36 3.36-3.36h27.3648c1.8557 0 3.36 1.5043 3.36 3.36v1.5173c0 1.8557 1.5043 3.36 3.36 3.36h9.8218c1.8557 0 3.36 1.5043 3.36 3.36v1.8702c0 1.8557 1.5043 3.36 3.36 3.36h.3731c1.8556 0 3.36-1.5043 3.36-3.36v-5.6731c0-1.4448 1.1712-2.616 2.616-2.616a2.512 2.512 0 0 1 2.3283 1.7821l2.4671 7.3358a16.32 16.32 0 0 1 .8514 5.2023v9.263c0 1.7688-.2876 3.5258-.8514 5.2022l-2.4671 7.3359a2.512 2.512 0 0 1-2.3283 1.7821c-1.4448 0-2.616-1.1712-2.616-2.616V65.047c0-1.8556-1.5044-3.36-3.36-3.36h-.3731c-1.8557 0-3.36 1.5044-3.36 3.36v8.8844c0 1.8556-1.5043 3.36-3.36 3.36H38.1214a3.36 3.36 0 0 1-2.3759-.9841l-8.7485-8.7485a3.36 3.36 0 0 0-2.3758-.9841h-6.7397c-1.8557 0-3.36-1.5043-3.36-3.36.0226-7.1208.0306-14.2416.0417-21.3624z"/><path fill="#ffea00" d="M26.563 20.656v3.84h8.998v5.758h12.72v-5.758h8.997v-3.84zm-12.012 29.01H7.867v14.042l-2.88-2.88V48.29l-1.089-1.089V35.753l3.969-3.969v14.042h6.69z"/></svg>

<svg width="96" height="96" viewBox="0 0 96 96" fill="none" xmlns="http://www.w3.org/2000/svg">
<path d="M14.5633 41.8517C14.5633 39.996 16.0677 38.4917 17.9233 38.4917H20.8399C22.6956 38.4917 24.1999 36.9874 24.1999 35.1317V33.6144C24.1999 31.7587 25.7042 30.2544 27.5599 30.2544H54.9247C56.7804 30.2544 58.2847 31.7587 58.2847 33.6144V35.1317C58.2847 36.9874 59.789 38.4917 61.6447 38.4917H71.4665C73.3222 38.4917 74.8265 39.996 74.8265 41.8517V43.7219C74.8265 45.5776 76.3308 47.0819 78.1865 47.0819H78.5596C80.4152 47.0819 81.9196 45.5776 81.9196 43.7219V38.0488C81.9196 36.604 83.0908 35.4328 84.5356 35.4328C85.6138 35.4652 86.5509 36.1825 86.8639 37.2149L89.331 44.5507C89.8949 46.2273 90.1824 47.9843 90.1824 49.753V59.016C90.1824 60.7848 89.8948 62.5418 89.331 64.2182L86.8639 71.5541C86.5509 72.5864 85.6138 73.3037 84.5356 73.3362C83.0908 73.3362 81.9196 72.165 81.9196 70.7202V65.047C81.9196 63.1914 80.4152 61.687 78.5596 61.687H78.1865C76.3308 61.687 74.8265 63.1914 74.8265 65.047V73.9314C74.8265 75.787 73.3222 77.2914 71.4665 77.2914H38.1214C37.2302 77.2914 36.3756 76.9374 35.7455 76.3073L26.997 67.5588C26.3669 66.9286 25.5123 66.5747 24.6212 66.5747H17.8815C16.0258 66.5747 14.5215 65.0704 14.5215 63.2147C14.5441 56.0939 14.5521 48.9731 14.5632 41.8523L14.5633 41.8517Z" stroke="#FFEA00" stroke-width="4.5"/>
<path d="M26.5625 20.6559V24.4959H35.5606V30.2539H48.2806V24.4959H57.2777V20.6559H26.5625Z" fill="#FFEA00"/>
<path d="M14.5513 49.6656H7.86682V63.7075L4.98682 60.8275V48.2899L3.89746 47.2006V35.753L7.86682 31.7837V45.8256H14.5571L14.5513 49.6656Z" fill="#FFEA00"/>
</svg>
